X: 19979
T: Jim Donoghue's
R: reel
M: 4/4
K: Dmajor
A2 AF BFAF|BFAF EDB,D|A2 AF BFAF|EDFE DEFG|
A2 AF BFAF|DF (3FFF ABde|f2fe dBAF|1 EDFE DEFG:|2 EDFE DEFG||
|:Affe fgfe|dfed BAFA|Beed e2de|f2df edBd|
Affe fgfe|dfed BAFB|ABde fdBA|FDFE DEFG:|

